justvector/krop.svg

<?xml version="1.0" encoding="iso-8859-1"?>
<!-- Generator: Adobe Illustrator 15.0.0, SVG Export Plug-In . SVG Version: 6.00 Build 0)  -->
<!DOCTYPE svg PUBLIC "-//W3C//DTD SVG 1.1//EN" "http://www.w3.org/Graphics/SVG/1.1/DTD/svg11.dtd">
<svg version="1.1" id="Layer_1" xmlns="http://www.w3.org/2000/svg" xmlns:xlink="http://www.w3.org/1999/xlink" x="0px" y="0px"
	 width="100px" height="100px" viewBox="0 0 100 100" style="enable-background:new 0 0 100 100;" xml:space="preserve">
<path id="Krop" d="M39.813,67.339c0.42,1.939-1.572,3.994-2.967,4.296c-0.621,0.134-1.076-0.092-1.16-0.479s0.314-0.799,0.213-1.265
	c-0.303-1.396-6.412-5.999-17.896-14.798c-0.747,11.932-0.817,18.36-0.96,19.203c-0.23,1.188-1.431,2.014-2.826,2.316
	c-1.241,0.269-2.186-0.34-2.453-1.58c-0.404-1.861,0.35-16.394,2.54-43.414c-0.085-0.387-0.229-0.681-0.245-0.758
	c-0.705-3.257,0.863-5.384,2.958-5.836c1.318-0.285,3.348,0.088,3.649,1.483c0.286,1.319-0.864,8.387-1.952,21.368
	c4.534-7.557,11.15-16.376,19.358-26.839c1.207-1.559,2.158-2.415,3.088-2.617c0.854-0.185,1.42,0.181,1.637,1.188
	c0.168,0.775-0.207,1.669-1.07,2.181c-4.561,5.938-11.053,15.705-19.853,29.057C33.632,58.285,39.327,65.091,39.813,67.339z
	 M87.044,42.507c1.895,8.764-1.693,18.064-6.502,19.104c-1.861,0.403-3.957-0.28-4.912-1.697
	c-0.156,10.912,0.033,17.042,0.352,18.515c0.184,0.854,0.934,0.936,1,1.244c0.184,0.854-0.533,1.658-1.311,1.826
	c-1.859,0.402-3.113-0.138-3.467-1.767c-0.279-1.292-0.902-11.411-0.082-29.788c-0.98,1.331-2.119,2.26-3.406,2.779
	c-0.521,8.475-3.275,13.373-7.773,14.346c-3.006,0.651-5.584-0.709-6.703-3.935c-1.299,2.889-2.629,4.413-4.783,4.879
	c-2.869,0.621-4.994-0.949-5.666-4.051c-0.705-3.257-0.508-7.604,0.461-13.251l-2.227-0.169c-0.963,7.19-1.99,11.066-3.619,11.419
	c-0.543,0.118-1.092-0.171-1.26-0.944c-0.117-0.544,1.385-4.849,1.576-12.601c-0.973-0.359-1.537-0.724-1.688-1.422
	c-0.318-1.474,1.244-4.003,3.57-4.506c1.086-0.234,2.09,0.278,2.291,1.209c0.102,0.465,0.113,1.273,0.064,2.177l2.729,0.222
	c0.236-0.781,0.662-1.442,1.242-2.136c0.432-0.256,0.803-0.417,0.957-0.45c1.164-0.251,2.934,0.422,3.152,1.429
	c0.168,0.775-0.225,1.592-1.127,2.679c-2.125,6.306-2.637,11.449-1.848,15.094c0.285,1.319,0.996,1.977,1.539,1.859
	c1.367-0.295,2.834-2.713,4.08-7.239c0.168-2.735,0.785-6.002,2.01-9.259c1.014-2.817,2.297-4.395,3.848-4.73
	c1.008-0.219,1.961,0.063,2.535,0.832c0.447-0.178,0.818-0.34,1.283-0.44c2.096-0.453,4.191,1.367,5.127,5.304
	c2.563-1.475,3.184-4.009,3.934-5.291c0.379-7.76,0.607-10.953,2.295-11.318c0.852-0.184,2.072,0.201,2.273,1.132
	c0.234,1.085-0.48,4.163-0.707,9.489c1.648-4.01,3.031-6.258,4.658-6.611C83.423,35.902,86.069,38.01,87.044,42.507z M64.519,49.085
	c-0.303-1.396-1.012-2.053-1.865-1.868c-2.328,0.504-5.375,8.551-4.15,14.212c0.352,1.628,1.063,2.286,2.148,2.051
	C63.212,62.926,65.743,54.747,64.519,49.085z M83.159,42.942c-0.352-1.629-0.986-2.305-1.684-2.153
	c-1.24,0.269-4.438,5.75-5.398,15.943c0.475,1.439,1.855,2.196,3.096,1.927c2.094-0.452,3.088-2.615,3.832-6.673
	C83.663,48.272,83.63,45.113,83.159,42.942z"/>
</svg>

<?xml version="1.0" encoding="UTF-8" standalone="no"?>
<!DOCTYPE svg PUBLIC "-//W3C//DTD SVG 1.1//EN" "http://www.w3.org/Graphics/SVG/1.1/DTD/svg11.dtd">
<svg width="100%" height="100%" viewBox="0 0 100 100" version="1.1" xmlns="http://www.w3.org/2000/svg" xmlns:xlink="http://www.w3.org/1999/xlink" xml:space="preserve" xmlns:serif="http://www.serif.com/" style="fill-rule:evenodd;clip-rule:evenodd;stroke-linejoin:round;stroke-miterlimit:2;">
    <path id="Krop" d="M39.813,67.339C40.233,69.278 38.241,71.333 36.846,71.635C36.225,71.769 35.77,71.543 35.686,71.156C35.602,70.769 36,70.357 35.899,69.891C35.596,68.495 29.487,63.892 18.003,55.093C17.256,67.025 19.802,34.894 18.714,47.875C23.248,40.318 29.864,31.499 38.072,21.036C39.279,19.477 40.23,18.621 41.16,18.419C42.014,18.234 42.58,18.6 42.797,19.607C42.965,20.382 42.59,21.276 41.727,21.788C37.166,27.726 30.674,37.493 21.874,50.845C33.632,58.285 39.327,65.091 39.813,67.339ZM87.044,42.507C88.939,51.271 85.351,60.571 80.542,61.611C78.681,62.014 76.585,61.331 75.63,59.914C75.474,70.826 75.663,76.956 75.982,78.429C76.166,79.283 76.916,79.365 76.982,79.673C77.166,80.527 76.449,81.331 75.671,81.499C73.812,81.901 72.558,81.361 72.204,79.732C71.925,78.44 71.302,68.321 72.122,49.944C71.142,51.275 70.003,52.204 68.716,52.723C68.195,61.198 65.441,66.096 60.943,67.069C57.937,67.72 55.359,66.36 54.24,63.134C52.941,66.023 51.611,67.547 49.457,68.013C46.588,68.634 44.463,67.064 43.791,63.962C43.086,60.705 43.283,56.358 44.252,50.711L42.025,50.542C41.062,57.732 40.035,61.608 38.406,61.961C37.863,62.079 37.314,61.79 37.146,61.017C37.029,60.473 38.531,56.168 38.722,48.416C37.749,48.057 37.185,47.692 37.034,46.994C36.716,45.52 38.278,42.991 40.604,42.488C41.69,42.254 42.694,42.766 42.895,43.697C42.997,44.162 43.008,44.97 42.959,45.874L45.688,46.096C45.924,45.315 46.35,44.654 46.93,43.96C47.362,43.704 47.733,43.543 47.887,43.51C49.051,43.259 50.821,43.932 51.039,44.939C51.207,45.714 50.814,46.531 49.912,47.618C47.787,53.924 47.275,59.067 48.064,62.712C48.349,64.031 49.06,64.689 49.603,64.571C50.97,64.276 52.437,61.858 53.683,57.332C53.851,54.597 54.468,51.33 55.693,48.073C56.707,45.256 57.99,43.678 59.541,43.343C60.549,43.124 61.502,43.406 62.076,44.175C62.523,43.997 62.894,43.835 63.359,43.735C65.455,43.282 67.55,45.102 68.486,49.039C71.049,47.564 71.67,45.03 72.42,43.748C72.799,35.988 74.027,20.795 75.715,20.43C76.567,20.246 77.787,20.631 77.988,21.562C78.222,22.647 76.508,37.725 76.281,43.051C77.929,39.041 79.312,36.793 80.939,36.44C83.423,35.902 86.069,38.01 87.044,42.507ZM64.519,49.085C64.216,47.689 63.507,47.032 62.654,47.217C60.326,47.721 57.279,55.768 58.504,61.429C58.856,63.057 59.567,63.715 60.652,63.48C63.212,62.926 65.743,54.747 64.519,49.085ZM83.159,42.942C82.807,41.313 82.173,40.637 81.475,40.789C80.235,41.058 77.037,46.539 76.077,56.732C76.552,58.171 77.932,58.928 79.173,58.659C81.267,58.207 82.261,56.044 83.005,51.986C83.663,48.272 83.63,45.113 83.159,42.942Z" style="fill-rule:nonzero;"/>
</svg>
